!!!COM: Bach, Johann Sebastian
!!!OPR: Joh. Seb. Bachs vierstimmige Choralges‰nge
!!!XEN: Four-part Chorales
!!!OTL: 98. Ich hab' mein' Sach' Gott heimgestellt
!!!SCT: BWV 351
!!!SCA: Thematisch-systematisches Verzeichnis der musikalischen Werke Johann Sebastian Bach: Bach-Werke-Verzeichnis (Schmieder)
!!!YOR: Bach Gesellschaft Edition xxxix
!!!ENC: Steven Rasmussen
!!!CDT: 1685/3//-1750/7/28/
!!!OCY: Deutschland
!!!YEC: Copyright (c) 1994, 2000 Center for Computer Assisted Research in the Humanities
!!!YEM: Rights to all derivative editions reserved
!!!YEN: United States of America
**kern	**silbe	**kern	**kern	**kern
*I:[SOPRANO]	*I:[SOPRANO]	*I:[ALTO]	*I:[TENORE]	*I:[BASSO]
*clefG2	*	*clefG2	*clefGv2	*clefF4
*k[b-]	*	*k[b-]	*k[b-]	*k[b-]
*d:	*	*d:	*d:	*d:
*M4/4	*	*M4/4	*M4/4	*M4/4
4g	Ich	4d	4B-	4G
=1	=1	=1	=1	=1
4g	hab'	4d	8B-L	8GL
.	.	.	8AJ	8FJ
4g	mein'	8dL	4G	4E-
.	.	8c#J	.	.
4f#	Sach'	4d	4A	8DL
.	.	.	.	8CJ
4b-	Gott	8gL	4d	8BB-L
.	.	8fJ	.	8GGJ
=2	=2	=2	=2	=2
4a	heim-	8e-L	4c	4C
.	.	8dJ	.	.
4g	-ge-	4en	8B-L	4C#
.	.	.	8AJ	.
4f#;	-stellt,	4d;	4A;	4D;
4f#	er	4d	4A	8DL
.	.	.	.	8E-J
=3	=3	=3	=3	=3
4f#	mach's	4c	4A	8E-L
.	.	.	.	8DJ
4f#	mit	4d	4A	8DL
.	.	.	.	8CJ
4g	mir,	4d	4G	8CL
.	.	.	.	8BBnJ
4e	wie's	4c	4G	8CL
.	.	.	.	8BB-J
=4	=4	=4	=4	=4
4f#	ihm	8cL	8AL	4AA
.	.	8e-J	8cJ	.
4f#	ge-	4d	8cL	4D
.	.	.	16B-L	.
.	.	.	16AJJ	.
4g;	-f√§llt,	4d;	4B-;	4GG;
4a	soll	4f	4c	4F
=5	=5	=5	=5	=5
4a	ich	4f	4c	8FL
.	.	.	.	8GJ
4cc	all-	4g	4c	8FL
.	.	.	.	8EJ
4a	-hier	4f	4c	8FL
.	.	.	.	8E-J
4f	noch	4f	4B-	8E-L
.	.	.	.	8DJ
=6	=6	=6	=6	=6
4g	l√§n-	8e-L	4B-	8E-L
.	.	8dJ	.	8EnJ
4a	-ger	8cL	8AL	8FL
.	.	8e-J	8cJ	8F#J
4b-;	leb'n,	4d;	4B-;	4G;
4b-	nicht	4g	4d	4GG
=7	=7	=7	=7	=7
4a	wi-	8gL	4.d	4D
.	.	8f#J	.	.
4g	-der-	8gL	.	4E-
.	.	8GJ	8c	.
4f#;	-streb'n,	4A;	4d;	4D;
4f#	sei'm	4d	4A	4D
=8	=8	=8	=8	=8
4f#	Will'n	8cL	4A	8AAL
.	.	8dJ	.	8BB-J
4f#	tu'	8e-L	4A	4C
.	.	8dJ	.	.
4g	ich	4d	4G	8BB-L
.	.	.	.	8BBnJ
4e	mich	4en	16GLL	8CL
.	.	.	16AJ	.
.	.	.	8B-J	8C#J
=9	=9	=9	=9	=9
4f#	ganz	4d	8AL	4D
.	.	.	8GJ	.
4f#	er-	4d	16ALL	4DD
.	.	.	16B-J	.
.	.	.	8cJ	.
4g;	-geb'n.	4d;	(8cL	4GG;
.	.	.	8Bn;J)	.
==|!	==|!	==|!	==|!	==|!
*-	*-	*-	*-	*-
!!!RWG: Key is interpreted using the Humdrum key tool.
!!!END: 1994/06/27
!!!EMD: Converted from MuseData to Humdrum Dec 19, 2000, by Andreas Kornstaedt using muse2kern.
!!!EED: Craig Stuart Sapp
!!!EEV: 2024/03/31
!!!ONB: Some non-unicode characters
